X:38
T:How Did You Break the Poe?
B:Terry "Cuz" Teahan "Sliabh Luachra on Parade" 1980
Z:Patrick Cavanagh
M:12/8
L:1/8
R:Slide
K:D
| FAA A2F A3 A3 | FAA A2F G3 G3 | 
FBB B2A FEF A2F | EFG F2E D3 D3 :| 
ABA A2F A3 A3 | ABA A2F G3 G3 | 
F2B cBA FEF A2F | EFG F2E D3 D3 :|| 

